X: 6
M:6/8
L:1/8
K:G
(B/c/)|ddB ddB|GGG G2 (c/d/)|eee eec|AAA A2 (B/c/)|
ddB ddB|GGG G2B|ADD DEF|G3G3||
K:D
(f/g/)|aaf aaf|ddd d2 (g/a/)|bbg bbg|eee e2 (f/g/)|aaf aaf|ddd d2f| eAA ABc|d3d3:|



